src/xmb/monochrome/Unofficial - Sony - PlayStation Vita (PSN) (Decrypted).svg

<svg xmlns="http://www.w3.org/2000/svg" xml:space="preserve" id="svg5145" x="0" y="0" version="1.1" viewBox="0 0 64 64"><style>.st0{fill:#fff}</style><path d="M20 30.8h6l-3-6zm6.06 3.999 2.97-2.97L32 34.8l-2.97 2.97z" class="st0"/><circle cx="29" cy="27.8" r="3" class="st0"/><path d="m23 33.7-1.9-1.9H20v1.1l1.9 1.9-1.9 1.9v1.1h1.1l1.9-1.9 1.9 1.9H26v-1.1l-1.9-1.9 1.9-1.9v-1.1h-1.1zm21 2.9c0 .2-.2.4-.4.4h-8.1c-.2 0-.4-.2-.4-.4v-4.8c0-.2.2-.4.4-.4h.5v-2.3c0-2 1.6-3.5 3.5-3.5 2 0 3.5 1.6 3.5 3.5v.4h-1.4v-.4c0-1.2-1-2.2-2.2-2.2s-2.2 1-2.2 2.2v2.3h6.2c.2 0 .4.2.4.4z" class="st0"/><g id="g5163" transform="translate(56 35)"><path id="path5165" d="M0-6c-.6 0-1-.4-1-1s.4-1 1-1 1 .4 1 1-.4 1-1 1m-2 2c-.6 0-1-.4-1-1s.4-1 1-1 1 .4 1 1-.4 1-1 1m0 8c-.6 0-1-.2-1-.5s.4-.5 1-.5 1 .2 1 .5-.4.5-1 .5m-4 4c0-2 4-2 4-2-1 2-4 2-4 2m1-5c.6 0 1 .2 1 .5s-.4.5-1 .5-1-.2-1-.5.4-.5 1-.5m-.5-14c.3 0 .5.2.5.5s-.2.5-.5.5-.5-.2-.5-.5.2-.5.5-.5M-2-.5C-2 .3-2.7 1-3.5 1S-5 .3-5-.5-4.3-2-3.5-2-2-1.3-2-.5M-4-8c.6 0 1 .4 1 1s-.4 1-1 1-1-.4-1-1 .4-1 1-1m2-2c.6 0 1 .4 1 1s-.4 1-1 1-1-.4-1-1 .4-1 1-1M-8 6h-32v-19h32zm-38 0s3 0 4 2c0 0-3 0-4-2m-1-3c0-.6.9-1 2-1s2 .4 2 1-.9 1-2 1-2-.4-2-1m-1.3-9v-.1q-.45-.9 0-1.8V-8h1.4l.8.8c.1.1.1.3 0 .4l-.7.8zm1.8-3.8.1-.1q.9-.45 1.8 0l.1.1v1.4l-.8.8c-.1.1-.3.1-.4 0l-.8-.8zm.1 5.6-.1-.1v-1.4l.8-.8c.1-.1.3-.1.4 0l.8.8v1.4l-.1.1q-.9.45-1.8 0m1.9 2.2c.8 0 1.5.7 1.5 1.5S-43.7 1-44.5 1-46 .3-46-.5s.7-1.5 1.5-1.5m1.8-6v.1q.45.9 0 1.8v.1h-1.4l-.8-.8c-.1-.1-.1-.3 0-.4l.8-.8zm42-4.2C-3.5-15-8-15-8-15h-32s-4.5 0-7.3 2.8c0 0-3.7 2.8-3.7 7.4V-2c0 .6.1 1.3.2 1.9.4 1.5 1.2 4.1 2.5 5.4 0 0 .9 1.8 3.7 2.8 2.9.9 4.8.9 4.8.9h31.7s1.9 0 4.7-.9S.3 5.3.3 5.3C1.6 4 2.5 1.3 2.8-.1 2.9-.8 3-1.4 3-2v-3c0-4.6-3.7-7.2-3.7-7.2" class="st0"/></g></svg>

<?xml version="1.0" encoding="utf-8"?>
<!-- Generator: Adobe Illustrator 26.3.1, SVG Export Plug-In . SVG Version: 6.00 Build 0)  -->
<svg version="1.1"
	 id="svg5145" xmlns:cc="http://creativecommons.org/ns#" xmlns:dc="http://purl.org/dc/elements/1.1/" xmlns:svg="http://www.w3.org/2000/svg" xmlns:rdf="http://www.w3.org/1999/02/22-rdf-syntax-ns#" xmlns:inkscape="http://www.inkscape.org/namespaces/inkscape" xmlns:sodipodi="http://sodipodi.sourceforge.net/DTD/sodipodi-0.dtd"
	 xmlns="http://www.w3.org/2000/svg" xmlns:xlink="http://www.w3.org/1999/xlink" x="0px" y="0px" viewBox="0 0 64 64"
	 style="enable-background:new 0 0 64 64;" xml:space="preserve">
<style type="text/css">
	.st0{fill:#FFFFFF;}
</style>
<sodipodi:namedview  bordercolor="#666666" borderopacity="1" gridtolerance="10" guidetolerance="10" id="namedview5147" inkscape:current-layer="g5153" inkscape:cx="6.9736842" inkscape:cy="40" inkscape:pageopacity="0" inkscape:pageshadow="2" inkscape:window-height="1005" inkscape:window-maximized="1" inkscape:window-width="1676" inkscape:window-x="4" inkscape:window-y="1" inkscape:zoom="3.8" objecttolerance="10" pagecolor="#808080" showgrid="false">
	</sodipodi:namedview>
<g id="g5153" transform="matrix(1.25,0,0,-1.25,0,64)" inkscape:groupmode="layer" inkscape:label="Sony - PlayStation Vita">
	<g id="g5155" transform="scale(0.8,0.8)">
	</g>
</g>
<g>
	<g>
		<polygon class="st0" points="20,30.8 26,30.8 23,24.8 		"/>
		
			<rect x="26.9" y="32.7" transform="matrix(0.7071 -0.7071 0.7071 0.7071 -16.083 30.6977)" class="st0" width="4.2" height="4.2"/>
		<circle class="st0" cx="29" cy="27.8" r="3"/>
		<polygon class="st0" points="23,33.7 21.1,31.8 20,31.8 20,32.9 21.9,34.8 20,36.7 20,37.8 21.1,37.8 23,35.9 24.9,37.8 26,37.8 
			26,36.7 24.1,34.8 26,32.9 26,31.8 24.9,31.8 		"/>
	</g>
	<path class="st0" d="M44,36.6c0,0.2-0.2,0.4-0.4,0.4h-8.1c-0.2,0-0.4-0.2-0.4-0.4v-4.8c0-0.2,0.2-0.4,0.4-0.4H36v-2.3
		c0-2,1.6-3.5,3.5-3.5c2,0,3.5,1.6,3.5,3.5v0.4h-1.4v-0.4c0-1.2-1-2.2-2.2-2.2s-2.2,1-2.2,2.2v2.3h6.2c0.2,0,0.4,0.2,0.4,0.4
		L44,36.6L44,36.6z"/>
</g>
<g>
</g>
<g id="g5157">
</g>
<g id="g5163" transform="translate(56,35)">
	<path id="path5165" inkscape:connector-curvature="0" class="st0" d="M0-6c-0.6,0-1-0.4-1-1s0.4-1,1-1s1,0.4,1,1S0.6-6,0-6 M-2-4
		c-0.6,0-1-0.4-1-1s0.4-1,1-1s1,0.4,1,1S-1.4-4-2-4 M-2,4c-0.6,0-1-0.2-1-0.5S-2.6,3-2,3s1,0.2,1,0.5S-1.4,4-2,4 M-6,8c0-2,4-2,4-2
		C-3,8-6,8-6,8 M-5,3c0.6,0,1,0.2,1,0.5S-4.4,4-5,4s-1-0.2-1-0.5S-5.6,3-5,3 M-5.5-11c0.3,0,0.5,0.2,0.5,0.5S-5.2-10-5.5-10
		S-6-10.2-6-10.5S-5.8-11-5.5-11 M-2-0.5C-2,0.3-2.7,1-3.5,1S-5,0.3-5-0.5S-4.3-2-3.5-2S-2-1.3-2-0.5 M-4-8c0.6,0,1,0.4,1,1
		s-0.4,1-1,1s-1-0.4-1-1S-4.6-8-4-8 M-2-10c0.6,0,1,0.4,1,1s-0.4,1-1,1s-1-0.4-1-1S-2.6-10-2-10 M-8,6h-32v-19h32V6z M-46,6
		c0,0,3,0,4,2C-42,8-45,8-46,6 M-47,3c0-0.6,0.9-1,2-1s2,0.4,2,1c0,0.6-0.9,1-2,1S-47,3.6-47,3 M-48.3-6l0-0.1
		c-0.3-0.6-0.3-1.2,0-1.8l0-0.1h1.4l0.8,0.8c0.1,0.1,0.1,0.3,0,0.4L-46.8-6H-48.3z M-46.5-9.8l0.1-0.1c0.6-0.3,1.2-0.3,1.8,0
		l0.1,0.1v1.4l-0.8,0.8c-0.1,0.1-0.3,0.1-0.4,0l-0.8-0.8C-46.5-8.3-46.5-9.8-46.5-9.8z M-46.4-4.2l-0.1-0.1v-1.4l0.8-0.8
		c0.1-0.1,0.3-0.1,0.4,0l0.8,0.8v1.4l-0.1,0.1C-45.2-3.9-45.8-3.9-46.4-4.2 M-44.5-2c0.8,0,1.5,0.7,1.5,1.5S-43.7,1-44.5,1
		S-46,0.3-46-0.5S-45.3-2-44.5-2 M-42.7-8l0,0.1c0.3,0.6,0.3,1.2,0,1.8l0,0.1h-1.4l-0.8-0.8c-0.1-0.1-0.1-0.3,0-0.4l0.8-0.8H-42.7z
		 M-0.7-12.2C-3.5-15-8-15-8-15h-32c0,0-4.5,0-7.3,2.8c0,0-3.7,2.8-3.7,7.4V-2c0,0.6,0.1,1.3,0.2,1.9c0.4,1.5,1.2,4.1,2.5,5.4
		c0,0,0.9,1.8,3.7,2.8C-41.7,9-39.8,9-39.8,9h31.7c0,0,1.9,0,4.7-0.9s3.7-2.8,3.7-2.8c1.3-1.3,2.2-4,2.5-5.4C2.9-0.8,3-1.4,3-2v-3
		C3-9.6-0.7-12.2-0.7-12.2"/>
</g>
</svg>
